packages/ui-solid/icons/edit_24.svg

<svg width="24" height="24" viewBox="0 0 24 24" fill="none" xmlns="http://www.w3.org/2000/svg">
<path fill-rule="evenodd" clip-rule="evenodd" d="M16.2138 2.76493C16.4068 2.74325 16.6017 2.74325 16.7947 2.76493C17.3205 2.82397 17.7435 3.06748 18.1229 3.36446C18.478 3.6424 18.8703 4.02958 19.3217 4.47505L19.3924 4.54483C19.855 5.00134 20.2565 5.39746 20.5446 5.75653C20.852 6.13972 21.105 6.56871 21.1663 7.10483C21.1887 7.30108 21.1887 7.49925 21.1663 7.6955C21.105 8.23162 20.852 8.66061 20.5446 9.0438C20.2565 9.40287 19.855 9.79899 19.3924 10.2555L9.06788 20.444C9.04286 20.4687 9.01804 20.4933 8.99338 20.5177C8.63974 20.8677 8.31896 21.1852 7.91002 21.3769C7.83292 21.4131 7.75409 21.4454 7.67382 21.4739C7.24807 21.6246 6.79674 21.624 6.29918 21.6232C6.26448 21.6232 6.22956 21.6231 6.19441 21.6231H6.08652C5.45768 21.6232 4.91154 21.6232 4.46764 21.5728C3.99397 21.519 3.52593 21.3984 3.11233 21.078C2.93884 20.9436 2.78305 20.7878 2.64866 20.6143C2.32826 20.2007 2.2076 19.7327 2.15383 19.259C2.10345 18.8151 2.10348 18.2689 2.10351 17.6401L2.10351 17.5915C2.10351 17.5571 2.10346 17.5229 2.10341 17.489C2.10272 17.0026 2.10209 16.5617 2.24592 16.1449C2.28198 16.0404 2.32466 15.9383 2.37371 15.8393C2.56931 15.4442 2.8836 15.1349 3.23029 14.7938C3.25448 14.77 3.27883 14.746 3.30331 14.7219L13.6868 4.47504C14.1382 4.02958 14.5305 3.6424 14.8856 3.36446C15.265 3.06748 15.688 2.82397 16.2138 2.76493ZM16.5938 4.55369C16.5343 4.547 16.4742 4.547 16.4147 4.55369C16.3544 4.56046 16.2436 4.58737 15.995 4.78189C15.7314 4.98828 15.4127 5.30077 14.9161 5.79084L14.4104 6.28992L17.6293 9.46647L18.0924 9.00949C18.6009 8.50762 18.9259 8.18491 19.1406 7.91734C19.3433 7.66469 19.371 7.55196 19.3779 7.49125C19.3848 7.43073 19.3848 7.36961 19.3779 7.30908C19.371 7.24837 19.3433 7.13564 19.1406 6.88299C18.9259 6.61542 18.6009 6.29271 18.0924 5.79084C17.5958 5.30077 17.2771 4.98828 17.0134 4.78189C16.7649 4.58737 16.6541 4.56046 16.5938 4.55369ZM16.348 10.7309L13.1291 7.55436L4.56764 16.003C4.10491 16.4597 4.03099 16.5487 3.98684 16.6379C3.97172 16.6685 3.95855 16.6999 3.94743 16.7322C3.91497 16.8262 3.90351 16.9414 3.90351 17.5915C3.90351 18.283 3.90487 18.7258 3.94235 19.056C3.97774 19.3678 4.0354 19.4652 4.07164 19.512C4.11309 19.5655 4.16114 19.6135 4.21465 19.655C4.26143 19.6912 4.35881 19.7489 4.67065 19.7843C5.00087 19.8218 5.44364 19.8231 6.13515 19.8231H6.19441C6.85944 19.8231 6.97687 19.8111 7.073 19.7771C7.09776 19.7683 7.12207 19.7583 7.14585 19.7472C7.23819 19.7039 7.3302 19.63 7.80355 19.1628L16.348 10.7309Z" fill="#007AFF"/>
</svg>

<svg xmlns="http://www.w3.org/2000/svg" width="24" height="24" fill="none"><path fill="currentColor" fill-rule="evenodd" d="M16.214 2.765q.29-.033.58 0c.526.059.95.302 1.329.6.355.277.747.665 1.199 1.11l.07.07c.463.456.864.852 1.153 1.212.307.383.56.812.621 1.348q.034.295 0 .59c-.061.537-.314.966-.621 1.349-.289.359-.69.755-1.153 1.211L9.068 20.444l-.075.074c-.353.35-.674.667-1.083.859a3 3 0 0 1-.236.097c-.426.15-.877.15-1.375.15h-.212c-.63 0-1.175 0-1.62-.051-.473-.054-.941-.175-1.355-.495a2.6 2.6 0 0 1-.463-.464c-.32-.413-.441-.881-.495-1.355-.05-.444-.05-.99-.05-1.619v-.151c-.001-.486-.002-.927.142-1.344q.054-.158.128-.306c.195-.395.51-.704.856-1.045l.073-.072L13.687 4.475c.451-.445.844-.833 1.199-1.11.379-.298.802-.541 1.328-.6m.38 1.789a.8.8 0 0 0-.18 0c-.06.006-.17.033-.419.228-.264.206-.582.519-1.079 1.009l-.506.499 3.22 3.176.462-.457c.509-.501.834-.824 1.049-1.092.202-.252.23-.365.237-.426a.8.8 0 0 0 0-.182c-.007-.06-.035-.173-.237-.426-.215-.268-.54-.59-1.049-1.092-.496-.49-.815-.803-1.079-1.01-.248-.194-.359-.22-.42-.227m-.246 6.177-3.219-3.177-8.561 8.449c-.463.457-.537.546-.581.635a1 1 0 0 0-.04.094c-.032.094-.043.21-.043.86 0 .691 0 1.134.038 1.464.036.312.093.41.13.456q.063.08.143.143c.046.036.144.094.456.13.33.037.773.038 1.464.038h.06c.664 0 .782-.012.878-.046l.073-.03c.092-.043.184-.117.658-.584z" clip-rule="evenodd"/></svg>
